X:188
T: ERWACHT VON SUESSEM SCHLUMMER
N: B0223
O: Europa, Mitteleuropa, Deutschland
R: Tageszeiten - Lied, Morgen
M: 4/4
L: 1/4
K: C
G, | A,G,A,B, | CG,z
C | B,DCE | D2z
G, | EDCB, | B,A,z
G, | A,DCB, | C2z

